src/22/actions/document-swap.svg

<svg xmlns="http://www.w3.org/2000/svg" viewBox="0 0 22 22">
  <defs id="defs3051">
    <style type="text/css" id="current-color-scheme">
      .ColorScheme-Text {
        color:#5d656b;
      }
      </style>
  </defs>
 <path 
    style="fill:currentColor;fill-opacity:1;stroke:none" 
	d="M 4 2.9980469 L 4 3 L 8.2929688 3 L 10 3 L 10 4 L 17 4 L 17 6 L 18 6 L 18 2.9980469 L 17 2.9980469 L 5 2.9980469 L 4 2.9980469 z M 8.2929688 3 L 5.5 5.7929688 L 4.7929688 6.5 L 5.5 7.2070312 L 8.2929688 10 L 9 9.2929688 L 6.7070312 7 L 12 7 L 12 6 L 11 6 L 10 6 L 6.7070312 6 L 9 3.7070312 L 8.2929688 3 z M 13.707031 6 L 13 6.7070312 L 15.292969 9 L 10 9 L 10 10 L 11 10 L 12 10 L 15.292969 10 L 13 12.292969 L 13.707031 13 L 16.5 10.207031 L 17.207031 9.5 L 16.5 8.7929688 L 13.707031 6 z M 4 10 L 4 19 L 5 19 L 13 19 L 14 19 L 14 18.990234 L 14.007812 19 L 18 15.007812 L 18 14.998047 L 18 13.591797 L 18 13 L 17 13 L 17 14 L 13 14 L 13 15 L 13 18 L 5 18 L 5 10 L 4 10 z "
    class="ColorScheme-Text"
    />
</svg>

<svg xmlns="http://www.w3.org/2000/svg" viewBox="0 0 22 22"><path d="M4 2.998V3h6v1h7v2h1V2.998H4zM8.293 3L5.5 5.793l-.707.707.707.707L8.293 10 9 9.293 6.707 7H12V6H6.707L9 3.707 8.293 3zm5.414 3L13 6.707 15.293 9H10v1h5.293L13 12.293l.707.707 2.793-2.793.707-.707-.707-.707L13.707 6zM4 10v9h10v-.01l.008.01L18 15.008V13h-1v1h-4v4H5v-8H4z" fill="currentColor" color="#5d656b"/></svg>
